X:1
T:C Major Samuel Babcock, 1795
T:Based on Psalm 95 and other scriptures
T:O come let us sing unto the Lord
T:Anthem Transcribed from The Middlesex Harmony, 1795.
%%score [ 1 2 3 4 ]
L:1/8
Q:1/4=90
M:2/4
K:C
V:1 treble nm="Treble" snm="Tr."
V:2 treble nm="Counter" snm="C."
V:3 treble-8 nm="Tenor" snm="T."
V:4 bass nm="Bass" snm="B."
V:1
 z2 | z2"^O     come let us sing, Let  us   sing     un – to _________ the   Lord," c2 | d2 ec | %3
 B2 BB | c3 e | de dd | e4- | e2 cc | d2 c2 | B2 A2 | G4 | z2 ef | ec c2 | B3 B | c4- | c2 z2 |: %16
 z4 | z2"^Let us come be fore his presence with thanksgiving," cd | e g/>f/ ec | BB ce | dd z2 | %21
 z2 z g | ec cc | B3 B | c3 g | ec cc | B3 B |1 c4- ||1 c2 z2 :|2 c4- || c4 | z2 c2 | B2 cc | %33
 AA Ac | B2 ec | B3 A | d3 e | ec d2 | e2 e z | z2 ec | B3 A | d3 e | ec d2 | %43
 e2 e"^For    he  is  our"c |: G2 Gc | %45
"^God, and  we     are     the people of   his pasture.   He   is   our  God,   and" G3 F | ED EF | %47
 Gc GA | G2 Gc | G2 GA | B3 c/d/ | e2 fd | cf ec | d4 |1 e2 ec :|2[M:3/4] e2 c2 GG || c2 dc BA | %57
 G2 G2 Gc | B2 B z2 B | c2 B2 G2 | (A2 G2) G2 | G4 B2 | c2 d2 e2 | c2 d2 d2 | e6 |[M:2/4] z2 z G |: %66
 c2 B2 | c2 ec | B3 c | AG A/B/c | B2 c2 | d4 | (c e2) g | e2 c2 | B3 B | c2 G z | z4 | c3 d | %78
 e2 ec | B3 B |1 c2 cG :|2 c2 c2- || c4 | z4 |: z4 | %85
"^Hal –    le– lu – jah,      A–men.  Hal–le–lu–jah, A–men." cG AB | c2 c z | G2 G z | GA BG | %89
 c2 c z | %90
"^Hal–le – lu–jah, Hal–le–lu–jah,     A   –    men,      A   –  men.             Hal–le –lu–jah,  Hal–le–lu–jah,   A   –  men,              A  –  men." EE GG | %91
 cG AA | A2 AG | ^F4 | G4 | z4 | e e/d/ cA | G>c G E/F/ | G4 | G4 :|[M:4/4] c8 | c8 |] %102
V:2
 z2 | z4 | %2
 z2"^O       come let  us  sing,  Let us sing un–to   the    Lord,       Let  us  make a  joy – ful  noise,        Let us" E2 | %3
 G2 GG | G2 GG | GG GG | G4- | G2 GG | A2 A2 | ^F3 F | G4 | z2 GA | %12
"^make  a        joy – ful     noise.                                                                                                            Let us come before his presence with thanks–" G2 A2 | %13
 G3 G | G4- | G2 z2 |: z4 | z4 | z2 EE | GG GG | AA GG | %21
"^–giving,       And   en   –    ter  his  courts with praise, and  en   –    ter  his courts with praise.                     praise.       Ocome let us" EE z G | %22
 G2 AG | G3 G | E3 G | G2 AG | G3 G |1 E4- ||1 E2 z2 :|2 E4- || E4 | z2 G2 | G2 GE | %33
"^worship and bow down, let us kneel before the Lord our maker,     Let  us  kneel  be–fore the  Lord, our maker." FF AA | %34
 G2 GE | D3 E | A3 G | G2 G2 | G2 G z | z2 GE | D3 E | A3 G | G2 G2 | G2 G z |: z4 | z4 | z4 | z4 | %48
 z2 z"^For     he  is  our    God,  and  we are the  people  of           his        pasture." E | %49
 E2 DD | E3 A | G2 AG | AA G2 | G4 |1 G2 G z :|2 %55
[M:3/4]"^pasture. Let us come before his presence with thanksgiving,   And  enter  his courts with praise, and enter his  courts with" G2 E2 GG || %56
 G2 G2 GA | G2 G2 GG | G2 G z2 G | G2 G2 EG | (F2 E2) D2 | E4 G2 | G2 G2 G2 | A4 G2 | %64
"^praise.                   Ex  –   alt   the Lord our  God, and worship at    his     ho–ly    hill,    For     the Lord our God  is      ho–ly," G6 | %65
[M:2/4] z2 z G |: G2 G2 | G2 G2 | G3 G | AB AG | G2 F2 | G4 | E3 E | A2 G2 | G3 G | E2 E z | z4 | %77
"^For the  Lord  our      God  is     ho– ly.   Ex –    ho–ly. ___                                                                                 Hal–le    –   lu    –  jah,         A   –" G3 G | %78
 G2 G2 | G3 G |1 E2 EG :|2 E2 E2- || E4 | z4 |: z4 | z4 | z4 | G2 G2 | G2 G2 | E4 | %90
"^– men." E2 z2 | z4 | z4 | %93
"^A   –  men,              A    –    men.        Hal   –   le       –      lu   –  jah,                A  –  men." D4 | %94
 D4 | z4 | G2 F2 | E2 G2 | G4 | E4 :|[M:4/4] F8 | E8 |] %102
V:3
 z2 | z4 | z2"^O         come let  us   sing,  Let  us   sing  un – to   the   Lord," c2 | d2 dd | %4
 e2 ec | d e/c/ BB | c4- | c2 eg | f2 e2 | d3 c | d4 | z2 cd | e2 fe | d3 d | c4- | c2 z2 |: %16
 z2"^Let us come before his presence with thanksgiving," cd | ef ed | cB ce | dd z2 | z4 | z2 z d | %22
 e2 fe | d3 d | c3 d | e2 fe | d3 d |1 c4- ||1 c2 z2 :|2 c4- || c4 | z2 e2 | g2 ee | cc AA | %34
 G2 GA | G3 E | A3 A/B/ | c2 B2 | c2 c z | z2 GA | G3 E | A3 A/B/ | c2 B2 | c2 c z |: z4 | z4 | %46
 z4 | z4 | z2 z"^For     he  is  our    God,  and" G | c2 BA | G3 A/B/ | c2 cB | AA G2 | B4 |1 %54
 c2 c z :|2[M:3/4] c2 c2 GG || c2 GA GF | E>F G2 ce | d2 d z2 d | e2 d2 c>e | (d2 c2) B2 | c4 d2 | %62
 e2 d2 cB | A4 B2 | c6 |[M:2/4] z2 z d |: e2 d2 | c2 e2 | d3 e | cc de | d2 c2 | B4 | c3 G | %73
 c2 e2 | d3 d | c2 c z | z4 | e3 d | c>d e2 | d3 d |1 c2 cd :|2 c2 c2- || c4 | z4 |: %84
"^Hal –  le – lu – jah,     Hal  –   le – lu–jah,     Hal    –      le  – lu–jah," cG AB | c2 c z | %86
 ed cd | e2 e z | ed ef | g2 g z | %90
"^Hal         –          –         –         –         –          –         le  –  lu  –  jah,                 Hal     –     le  –  lu   –    jah,             A    –  men,              A  –  men." (g>a g>f | %91
 e>f e>d | c>d c)B | A4 | G4 | z4 | cG AB | c2 e2 | d4 | c4 :|[M:4/4] A8 | G8 |] %102
V:4
"^O come let us sing," C2 | G,2 A,F, | D,2 C,2 | G,2 G,G, | C2 C,C, | G,C G,G, | C,4- | C,2 C,C, | %8
 F,2 A,2 | D,3 D, | G,4 | z2 E,D, | C,2 F,2 | G,3 G, | C,4- | %15
 C,2"^Let us come before his presence with thanksgiving,                                                                with thanks–" C,D, |: %16
 E,F, E,D, | C,B,, C,D, | G,G, z2 | z4 | z2 G,,G,, |"^–giving," C,C, z G, | %22
"^Edited by B. C. Johnston, 2016\nMeasure 62, Bass: last note changed from A to B." C2 A,C | %23
 G,3 G, | C,3 G, | C2 A,C | G,3 G, |1 C,4- ||1 C,2"^Let  us" C,D, :|2 C,4- || C,4 | z2 C2 | %32
 G,2 G,A, | F,F, F,F, | E,2 C,C, | G,,3 C, | D,3 C, | G,2 G,,2 | C,2 C, z | z2 C,C, | G,,3 C, | %41
 D,3 C, | G,2 G,,2 | C,2 C, z |: z4 | z4 | z4 | z4 | z2 z C, | C,2 G,F, | E,3 D, | C,2 F,G, | %52
 A,F, G,2- | G,2"^his  pasture." G,,2 |1 C,2 C, z :|2[M:3/4] C,2 C,2 G,G, || C2 G,A, G,F, | %57
 E,2 C,2 C,C, | G,2 G, z2 G, | C2 G,2 E,2 | (F,2 G,2) G,,2 | C,4 B,,2 | C2 G,2 E,2 | F,2 D,2 G,2 | %64
 C,6 |[M:2/4] z2 z G, |: C2 G,2 | E,2 C,2 | G,3 E, | F,E, D,C, | G,2 A,2 | G,4 | A,3 G, | A,2 C2 | %74
 G,3 G, | C,2 C, z | z4 | C3 G, | E,2 C,2 | G,,3 G,, |1 C,2 C,G, :|2 C,2 C,2- || C,4 | z4 |: z4 | %85
 z4 |"^Hal  –   le– lu – jah,     A    –         –       men." CG, A,B, | C2 C z | G,4 | C,4 | %90
"^Hal–le–lu–jah,   Hal         –          –        le–lu–jah,  A   – men.               Hal    –        le  –  lu   –   jah,              A    –  men,             A  –  men." C,C, G,G, | %91
 (C>D C>B, | A,>)B, A,G, | D,4 | G,4 | z4 | (C,2 F,)D, | E,2 C,2 | G,,4 | C,4 :|[M:4/4] F,8 | %101
 C,8 |] %102

